X: 1
T: CBC's Glenn And Karl
R: reel
Z: 2020 John Chambers <jc:trillian.mit.edu>
S: https://thesession.org/tunes/14106
M: 4/4
L: 1/8
K: Ador
|: FA~A2 B2AF | ABde f2ef | abaf e2fe | dGGA Bdef |
|  FA~A2 B2AF | ABde f2ef | abaf e2fe | dBBA BddA :|
|: abag  f2ef | gBBd efge | abag f{g}fed | cAAB cdeg |
|  abag  f2ef | gBBd efge | abag efed | dBBA BddA :| 
